X:42
T:High Level Hornpipe
M:2/4
L:1/16
Z: Jason R. Fruit <Jason R. Fruit@big-mac>
N: From Bob Walters' playing.  In Christeson's, there is a piano part.
K:Bb
dc | BdFB DFBd | fbdf BdFB | ceAc AFCF | AFAc ecAF |
BdFB DFBd | fbdf BdcB | GABc dgfe | AFGA B2 :|
|: cB | Afcf Afcf | cAFA ecAc | dfBf dfBd | dBdf bfdB |
cg=eg cgeg | =eceg bgec | f=efa gfeg | fag=e f2 :|

